svg/icon/req.svg

<?xml version="1.0" encoding="UTF-8"?>
<svg width="32px" height="32px" viewBox="0 0 32 32" version="1.1" xmlns="http://www.w3.org/2000/svg" xmlns:xlink="http://www.w3.org/1999/xlink">
    <title>svg/icon/req</title>
    <defs>
        <linearGradient x1="50%" y1="0%" x2="50%" y2="100%" id="linearGradient-1">
            <stop stop-color="#FFFFFF" stop-opacity="0.5" offset="0%"></stop>
            <stop stop-color="#000000" stop-opacity="0.5" offset="100%"></stop>
        </linearGradient>
        <circle id="path-2" cx="16" cy="15" r="15"></circle>
        <filter x="-5.8%" y="-4.2%" width="111.7%" height="111.7%" filterUnits="objectBoundingBox" id="filter-3">
            <feOffset dx="0" dy="0.5" in="SourceAlpha" result="shadowOffsetOuter1"></feOffset>
            <feGaussianBlur stdDeviation="0.5" in="shadowOffsetOuter1" result="shadowBlurOuter1"></feGaussianBlur>
            <feComposite in="shadowBlurOuter1" in2="SourceAlpha" operator="out" result="shadowBlurOuter1"></feComposite>
            <feColorMatrix values="0 0 0 0 0   0 0 0 0 0   0 0 0 0 0  0 0 0 0.199473505 0" type="matrix" in="shadowBlurOuter1"></feColorMatrix>
        </filter>
        <filter id="filter-4">
            <feColorMatrix in="SourceGraphic" type="matrix" values="0 0 0 0 1.000000 0 0 0 0 1.000000 0 0 0 0 1.000000 0 0 0 1.000000 0"></feColorMatrix>
        </filter>
        <filter x="-23.4%" y="-22.1%" width="146.9%" height="144.1%" filterUnits="objectBoundingBox" id="filter-5">
            <feOffset dx="0" dy="0.5" in="SourceAlpha" result="shadowOffsetOuter1"></feOffset>
            <feGaussianBlur stdDeviation="0.5" in="shadowOffsetOuter1" result="shadowBlurOuter1"></feGaussianBlur>
            <feColorMatrix values="0 0 0 0 0   0 0 0 0 0   0 0 0 0 0  0 0 0 0.204257246 0" type="matrix" in="shadowBlurOuter1" result="shadowMatrixOuter1"></feColorMatrix>
            <feMerge>
                <feMergeNode in="shadowMatrixOuter1"></feMergeNode>
                <feMergeNode in="SourceGraphic"></feMergeNode>
            </feMerge>
        </filter>
    </defs>
    <g id="icon/req" stroke="none" stroke-width="1" fill="none" fill-rule="evenodd">
        <g id="Oval">
            <use fill="black" fill-opacity="1" filter="url(#filter-3)" xlink:href="#path-2"></use>
            <use fill="#00E6A0" fill-rule="evenodd" xlink:href="#path-2"></use>
            <use fill="url(#linearGradient-1)" fill-rule="evenodd" style="mix-blend-mode: soft-light;" xlink:href="#path-2"></use>
            <circle stroke-opacity="0.0970052083" stroke="#000000" stroke-width="1" stroke-linejoin="square" cx="16" cy="15" r="14.5"></circle>
        </g>
        <g filter="url(#filter-4)" id="Group">
            <g filter="url(#filter-5)" transform="translate(8.500000, 6.500000)">
                <path d="M14.5734489,3.55271368e-14 C14.7517815,-0.00380510644 14.9239626,0.0654134207 15.0499278,0.191710865 L15.0438674,0.18585101 C15.1443656,0.284754504 15.2070698,0.412835274 15.2284827,0.549754921 L15.2366883,0.653823541 L15.2295052,4.0705841 C15.2305273,4.5197673 15.0520991,4.95075339 14.7338714,5.2677672 L14.7338714,5.2677672 L10.4934489,9.49502072 L15.0307728,14.0179785 C15.4584852,14.4435522 15.6266668,15.0649804 15.4719652,15.648177 C15.3172637,16.2313737 14.8631819,16.6877373 14.280768,16.8453601 C13.6983542,17.002983 13.0760908,16.8379184 12.6483785,16.4123447 L12.6483785,16.4123447 L6.91267425,10.6945982 C6.59332633,10.3780627 6.41368022,9.94705696 6.41368022,9.49741509 C6.41368022,9.04777322 6.59332633,8.61676748 6.91267425,8.30023199 L6.91267425,8.30023199 L11.9348674,3.28785101 L3.43725171,3.28882354 L3.43725171,15.1768517 C3.44511041,15.6348464 3.26663651,16.0763966 2.94273769,16.4002954 C2.61883886,16.7241943 2.17728866,16.9026682 1.71929397,16.8948095 L1.71929397,16.8948095 L1.54868063,16.8885251 C1.15334515,16.8539812 0.780537443,16.6815706 0.497284613,16.398515 C0.173567093,16.0750229 -0.00571604009,15.6344606 8.8817842e-15,15.1768517 L8.8817842e-15,15.1768517 L8.8817842e-15,1.84621791 C8.8817842e-15,0.780724949 0.762744672,3.55271368e-14 1.79591369,3.55271368e-14 L1.79591369,3.55271368e-14 Z" id="Combined-Shape" fill="#FFFFFF" fill-rule="nonzero"></path>
            </g>
        </g>
    </g>
</svg>

<svg width="32" height="32" viewBox="0 0 32 32" xmlns="http://www.w3.org/2000/svg" xmlns:xlink="http://www.w3.org/1999/xlink"><defs><filter x="-5.8%" y="-4.2%" width="111.7%" height="111.7%" filterUnits="objectBoundingBox" id="a"><feOffset dy=".5" in="SourceAlpha" result="shadowOffsetOuter1"/><feGaussianBlur stdDeviation=".5" in="shadowOffsetOuter1" result="shadowBlurOuter1"/><feComposite in="shadowBlurOuter1" in2="SourceAlpha" operator="out" result="shadowBlurOuter1"/><feColorMatrix values="0 0 0 0 0 0 0 0 0 0 0 0 0 0 0 0 0 0 0.199473505 0" in="shadowBlurOuter1"/></filter><filter id="d"><feColorMatrix in="SourceGraphic" values="0 0 0 0 1.000000 0 0 0 0 1.000000 0 0 0 0 1.000000 0 0 0 1.000000 0"/></filter><filter x="-23.4%" y="-22.1%" width="146.9%" height="144.1%" filterUnits="objectBoundingBox" id="e"><feOffset dy=".5" in="SourceAlpha" result="shadowOffsetOuter1"/><feGaussianBlur stdDeviation=".5" in="shadowOffsetOuter1" result="shadowBlurOuter1"/><feColorMatrix values="0 0 0 0 0 0 0 0 0 0 0 0 0 0 0 0 0 0 0.204257246 0" in="shadowBlurOuter1" result="shadowMatrixOuter1"/><feMerge><feMergeNode in="shadowMatrixOuter1"/><feMergeNode in="SourceGraphic"/></feMerge></filter><linearGradient x1="50%" y1="0%" x2="50%" y2="100%" id="c"><stop stop-color="#FFF" stop-opacity=".5" offset="0%"/><stop stop-opacity=".5" offset="100%"/></linearGradient><circle id="b" cx="16" cy="15" r="15"/></defs><g fill="none" fill-rule="evenodd"><use fill="#000" filter="url(#a)" xlink:href="#b"/><use fill="#00E6A0" xlink:href="#b"/><use fill="url(#c)" style="mix-blend-mode:soft-light" xlink:href="#b"/><circle stroke-opacity=".097" stroke="#000" stroke-linejoin="square" cx="16" cy="15" r="14.5"/><g filter="url(#d)"><g filter="url(#e)" transform="translate(8.5 6.5)"><path d="M14.573 0a.653.653 0 01.477.192l-.006-.006a.65.65 0 01.184.364l.009.104-.007 3.417c0 .449-.178.88-.496 1.197l-4.24 4.227 4.537 4.523a1.689 1.689 0 11-2.383 2.394l-5.735-5.717a1.686 1.686 0 010-2.395l5.022-5.012H3.437v11.889a1.69 1.69 0 01-1.718 1.718l-.17-.006A1.696 1.696 0 010 15.177V1.847C0 .78.763 0 1.796 0z" fill="#FFF" fill-rule="nonzero"/></g></g></g></svg>
